!!!SOCIAL_FUNCTION:	songs of the drum-presentation ceremony
!!!PDT:	1913
!!!OTL: No_57_Song_of_the_Owner_of_the_Drum.krn
!!!REG: Great_Lakes
!!!LANG: Non-Tone
!!!LING_GROUP: Algonquin
**kern	**kern
*staff2	*staff1
=1-	=1-
*clefF4	*clefF4
*k[f#c#g#d#]	*k[f#c#g#d#]
*M3/4	*M3/4
8GG#/L	8.B\L
8GG#/J	.
.	16B\Jk
8GG#/L	8.B\L
8GG#/J	.
.	16B\Jk
8GG#/L	4B\
8GG#/J	.
=2	=2
2.r	8c#\L
.	8d#\J
.	8.c#\L
.	16B\Jk
.	4B\
=3||	=3||
*M2/4	*M2/4
2r	(16B\LL
.	16F#\J)
.	8F#\J
.	16B\LL
.	16F#\J
.	8F#\J
=4	=4
2r	4E\
.	12E/L
.	12C#/
.	12BB/J
=5	=5
2r	8.BB/L
.	16BB/Jk
.	4BB/
=6	=6
2r	8C#/L
.	8E/J
.	16E/LK
.	8.C#/J
=7	=7
2r	8.BB/L
.	16BB/Jk
.	8.BB/L
.	16BB/Jk
=8	=8
2r	[2BB/
=9	=9
2r	2BB/]
==	==
*-	*-
